!!!SOCIAL_FUNCTION:	songs of medicine men's dance
!!!PDT:	1956
!!!OTL: No_22_Corn_Dance_Song_(l).krn
!!!LANG: Non-Tone
!!!LING_GROUP: Muskogean
!!!REG: Florida
**kern
*staff1
=1-
=
*clefF4
*k[b-]
*M2/4
4c\
8A\L
8A\J
=2||
*M3/4
8c\L
8c\J
2c\
=3||
*M2/4
8.d\L
16c\Jk
8A\L
8A\J
=4
8G\L
8F\J
8F\
8r
=5||
*M3/4
4.A\
8G\
8A\L
8F\J
=6||
*M2/4
4.F\
8D\
=7||
*M3/4
8F\L
8F\J
4.F\
8r
=8||
*M2/4
(4F\
8D\L)
8D\J
=9||
*M3/4
8C/L
8C/J
4C/
4r
=10||
*M2/4
4C/
8D/L
8C/J
=11||
*M3/4
8AA/L
8AA/J
4AA/
4r
=12||
*M2/4
4C/
8AA/L
8AA/J
=13||
*M3/4
8C/L
8C/J
4C/
4r
=14
*M2/4
4C/
8C/L
8C/J
=15
8C/L
8C/J
4C/
==:|!
*-
